svg/24/logo-microsoft-powerpoint.svg

<svg width="24" height="24" viewBox="0 0 24 24" fill="currentColor" xmlns="http://www.w3.org/2000/svg"><path d="M13.25 3.25C14.0573 3.25 14.832 3.35417 15.5742 3.5625C16.3164 3.77083 17.013 4.0638 17.6641 4.44141C18.3151 4.81901 18.9043 5.27474 19.4316 5.80859C19.959 6.34245 20.4147 6.93164 20.7988 7.57617C21.1829 8.2207 21.4792 8.91732 21.6875 9.66602C21.8958 10.4147 22 11.1927 22 12C22 12.8073 21.8958 13.582 21.6875 14.3242C21.4792 15.0664 21.1862 15.763 20.8086 16.4141C20.431 17.0651 19.9753 17.6543 19.4414 18.1816C18.9076 18.709 18.3184 19.1647 17.6738 19.5488C17.0293 19.9329 16.3327 20.2292 15.584 20.4375C14.8353 20.6458 14.0573 20.75 13.25 20.75C12.5339 20.75 11.834 20.6654 11.1504 20.4961C10.4668 20.3268 9.81901 20.0827 9.20703 19.7637C8.59505 19.4447 8.02214 19.0508 7.48828 18.582C6.95443 18.1133 6.48242 17.5859 6.07227 17H2.83008C2.60221 17 2.4069 16.9186 2.24414 16.7559C2.08138 16.5931 2 16.3978 2 16.1699V7.83008C2 7.60221 2.08138 7.4069 2.24414 7.24414C2.4069 7.08138 2.60221 7 2.83008 7H6.07227C6.48242 6.41406 6.95117 5.88997 7.47852 5.42773C8.00586 4.96549 8.57878 4.57161 9.19727 4.24609C9.81576 3.92057 10.4668 3.67318 11.1504 3.50391C11.834 3.33464 12.5339 3.25 13.25 3.25ZM13.875 4.5293V11.375H20.7207C20.6426 10.4635 20.4147 9.61068 20.0371 8.81641C19.6595 8.02214 19.1647 7.31901 18.5527 6.70703C17.9408 6.09505 17.2344 5.60026 16.4336 5.22266C15.6328 4.84505 14.7799 4.61393 13.875 4.5293ZM9.49023 10.8379C9.49023 10.4603 9.42839 10.138 9.30469 9.87109C9.18099 9.60417 9.00521 9.38281 8.77734 9.20703C8.54948 9.03125 8.28906 8.90755 7.99609 8.83594C7.70312 8.76432 7.3776 8.72526 7.01953 8.71875H4.37305V15.2715H5.90625V12.9863H6.94141C7.26042 12.9863 7.56966 12.9408 7.86914 12.8496C8.16862 12.7585 8.44206 12.6217 8.68945 12.4395C8.93685 12.2572 9.12891 12.0326 9.26562 11.7656C9.40234 11.4987 9.47721 11.1895 9.49023 10.8379ZM13.25 19.5C13.901 19.5 14.5293 19.4219 15.1348 19.2656C15.7402 19.1094 16.3099 18.8815 16.8438 18.582C17.3776 18.2826 17.8724 17.9277 18.3281 17.5176C18.7839 17.1074 19.1777 16.6452 19.5098 16.1309C19.8418 15.6165 20.1152 15.0632 20.3301 14.4707C20.5449 13.8783 20.6751 13.2598 20.7207 12.6152H12.6348V4.5293C11.6712 4.60742 10.763 4.85807 9.91016 5.28125C9.05729 5.70443 8.30859 6.27734 7.66406 7H11.1699C11.3978 7 11.5931 7.08138 11.7559 7.24414C11.9186 7.4069 12 7.60221 12 7.83008V16.1699C12 16.3978 11.9186 16.5931 11.7559 16.7559C11.5931 16.9186 11.3978 17 11.1699 17H7.66406C8.02214 17.3971 8.41276 17.7487 8.83594 18.0547C9.25911 18.3607 9.71159 18.6243 10.1934 18.8457C10.6751 19.0671 11.1699 19.2298 11.6777 19.334C12.1855 19.4382 12.7096 19.4935 13.25 19.5ZM6.84375 9.99805C7.16276 9.99805 7.41667 10.0599 7.60547 10.1836C7.79427 10.3073 7.88867 10.5417 7.88867 10.8867C7.88867 11.0365 7.85612 11.1569 7.79102 11.248C7.72591 11.3392 7.63802 11.4173 7.52734 11.4824C7.41667 11.5475 7.29948 11.5866 7.17578 11.5996C7.05208 11.6126 6.92839 11.6257 6.80469 11.6387H5.90625V9.99805H6.84375Z"/></svg>

<svg xmlns="http://www.w3.org/2000/svg" width="24" height="24" fill="currentColor" viewBox="0 0 24 24">
  <path d="M13.25 3.25a8.56 8.56 0 0 1 2.324.313 8.99 8.99 0 0 1 2.09.878 8.39 8.39 0 0 1 1.768 1.368 9.227 9.227 0 0 1 1.367 1.767 8.56 8.56 0 0 1 .889 2.09c.208.749.312 1.527.312 2.334 0 .807-.104 1.582-.313 2.324a8.988 8.988 0 0 1-.878 2.09 8.388 8.388 0 0 1-1.368 1.768 9.223 9.223 0 0 1-1.767 1.367 8.524 8.524 0 0 1-2.09.889 8.667 8.667 0 0 1-2.334.312 8.726 8.726 0 0 1-4.043-.986A8.853 8.853 0 0 1 6.072 17H2.83a.8.8 0 0 1-.586-.244A.8.8 0 0 1 2 16.17V7.83a.8.8 0 0 1 .244-.586A.8.8 0 0 1 2.83 7h3.242a8.765 8.765 0 0 1 3.125-2.754 8.703 8.703 0 0 1 4.053-.996Zm.625 1.28v6.845h6.846a7.374 7.374 0 0 0-.684-2.559 7.485 7.485 0 0 0-3.604-3.594 7.614 7.614 0 0 0-2.558-.693ZM9.49 10.837c0-.378-.062-.7-.185-.967a1.76 1.76 0 0 0-.528-.664 2.066 2.066 0 0 0-.78-.371 4.46 4.46 0 0 0-.977-.117H4.373v6.553h1.533v-2.286h1.035c.32 0 .629-.045.928-.136.3-.091.573-.228.82-.41.248-.183.44-.407.577-.674a2.19 2.19 0 0 0 .224-.928Zm3.76 8.662c.651 0 1.28-.078 1.885-.234a7.105 7.105 0 0 0 1.709-.684 8.234 8.234 0 0 0 1.484-1.064 6.87 6.87 0 0 0 1.182-1.387 8.215 8.215 0 0 0 .82-1.66 6.83 6.83 0 0 0 .39-1.856h-8.085V4.53A7.422 7.422 0 0 0 7.665 7h3.505a.8.8 0 0 1 .586.244.8.8 0 0 1 .244.586v8.34a.8.8 0 0 1-.244.586.8.8 0 0 1-.586.244H7.664a7.48 7.48 0 0 0 1.172 1.055c.423.306.876.57 1.357.79a6.8 6.8 0 0 0 1.485.489 8.27 8.27 0 0 0 1.572.166ZM6.844 9.998c.319 0 .573.062.761.186.19.123.284.358.284.703 0 .15-.033.27-.098.361a.842.842 0 0 1-.264.234.865.865 0 0 1-.351.118l-.371.039h-.899V9.998h.938Z"/>
</svg>
